Lüv Dark/status/22/battery-080-charging.svg

<?xml version="1.0" encoding="UTF-8" standalone="no"?>
<!-- Created with Inkscape (http://www.inkscape.org/) -->

<svg
   xmlns:dc="http://purl.org/dc/elements/1.1/"
   xmlns:cc="http://creativecommons.org/ns#"
   xmlns:rdf="http://www.w3.org/1999/02/22-rdf-syntax-ns#"
   xmlns:svg="http://www.w3.org/2000/svg"
   xmlns="http://www.w3.org/2000/svg"
   xmlns:sodipodi="http://sodipodi.sourceforge.net/DTD/sodipodi-0.dtd"
   xmlns:inkscape="http://www.inkscape.org/namespaces/inkscape"
   width="22"
   height="22"
   id="svg4359"
   version="1.1"
   inkscape:version="0.91+devel r"
   sodipodi:docname="battery-080-charging.svg"
   viewBox="0 0 22 22">
  <defs
     id="defs4361">
    <clipPath
       id="clipPath6">
      <rect
         id="rect8"
         x="26.85"
         y="220.75"
         width="3.825"
         height="6.375"
         style="color:#304050;fill:#304050" />
    </clipPath>
    <clipPath
       id="clipPath10">
      <rect
         id="rect12"
         x="26.966"
         y="221.33"
         width="2.898"
         height="5.2160001"
         style="color:#304050;fill:#304050" />
    </clipPath>
    <clipPath
       id="clipPath14">
      <rect
         id="rect16"
         x="26.999001"
         y="221.5"
         width="1.876"
         height="4.8740001"
         style="color:#304050;fill:#304050" />
    </clipPath>
    <clipPath
       id="clipPath3025">
      <rect
         height="4.8740001"
         width="1.876"
         y="221.5"
         x="26.999001"
         id="rect3027"
         style="color:#304050;fill:#304050" />
    </clipPath>
    <clipPath
       id="clipPath3021">
      <rect
         height="5.2160001"
         width="2.898"
         y="221.33"
         x="26.966"
         id="rect3023"
         style="color:#304050;fill:#304050" />
    </clipPath>
    <clipPath
       id="clipPath3017">
      <rect
         height="6.375"
         width="3.825"
         y="220.75"
         x="26.85"
         id="rect3019"
         style="color:#304050;fill:#304050" />
    </clipPath>
  </defs>
  <sodipodi:namedview
     id="base"
     pagecolor="#304050"
     bordercolor="#304050"
     borderopacity="1.0"
     inkscape:pageopacity="0.0"
     inkscape:pageshadow="2"
     inkscape:zoom="43.666666"
     inkscape:cx="7.6863272"
     inkscape:cy="11.612734"
     inkscape:current-layer="layer1"
     showgrid="true"
     inkscape:grid-bbox="true"
     inkscape:document-units="px"
     inkscape:window-width="2560"
     inkscape:window-height="957"
     inkscape:window-x="-4"
     inkscape:window-y="29"
     inkscape:window-maximized="1"
     inkscape:showpageshadow="false"
     borderlayer="true"
     showguides="true"
     fit-margin-top="0"
     fit-margin-left="0"
     fit-margin-right="0"
     fit-margin-bottom="0">
    <inkscape:grid
       type="xygrid"
       id="grid4105"
       originx="1.110223e-16"
       originy="0"
       empspacing="2" />
    <sodipodi:guide
       position="-1,22"
       orientation="22,0"
       id="guide4111" />
    <sodipodi:guide
       position="23,-1"
       orientation="0,22"
       id="guide4113" />
    <sodipodi:guide
       position="23,-1"
       orientation="-22,0"
       id="guide4115" />
    <sodipodi:guide
       position="11,10"
       orientation="16,0"
       id="guide4130" />
    <sodipodi:guide
       position="12,11"
       orientation="0,16"
       id="guide4132" />
    <sodipodi:guide
       position="19,19"
       orientation="0,-16"
       id="guide4136" />
    <sodipodi:guide
       position="3,22"
       orientation="19.000011,0"
       id="guide4152" />
    <sodipodi:guide
       position="3,2.9999886"
       orientation="0,4"
       id="guide4154" />
    <sodipodi:guide
       position="15,3"
       orientation="0,4.0000019"
       id="guide4162" />
    <sodipodi:guide
       position="19.000002,3"
       orientation="-19,0"
       id="guide4164" />
    <sodipodi:guide
       position="-1,23"
       orientation="0,-4.0000019"
       id="guide4166" />
  </sodipodi:namedview>
  <metadata
     id="metadata4364">
    <rdf:RDF>
      <cc:Work
         rdf:about="">
        <dc:format>image/svg+xml</dc:format>
        <dc:type
           rdf:resource="http://purl.org/dc/dcmitype/StillImage" />
        <dc:title />
      </cc:Work>
    </rdf:RDF>
  </metadata>
  <g
     id="layer1"
     inkscape:label="Layer 1"
     inkscape:groupmode="layer"
     transform="translate(0,-26)">
    <rect
       style="color:#ffffff;enable-background:accumulate"
       id="rect4147-8"
       width="2"
       height="2"
       x="-3"
       y="25" />
    <path
       style="opacity:1;fill:#ffffff;stroke-opacity:1"
       d="m 3,6 0,3 -1,0 -1,0 0,4.1 1,0 1,0 0,2.9 18,0 0,-10 z m 2,2 14,0 0,6 -14,0 z"
       transform="translate(0,26)"
       id="rect4152"
       inkscape:connector-curvature="0"
       sodipodi:nodetypes="cccccccccccccccc" />
    <path
       style="opacity:1;fill:#ffffff;stroke-opacity:1"
       d="m 6,9 0,4 6,0 0,-1 -2,0 L 11.455078,9 6,9 Z m 6,0 0,1 2,0 -1.455078,3 L 15,13 15,9 12,9 Z"
       id="rect4212"
       transform="translate(0,26)"
       inkscape:connector-curvature="0" />
    <path
       style="color:#ffffff;enable-background:accumulate;fill:#ffffff;fill-opacity:1"
       d="M 12,8 11.455078,9 12,9 12,8 Z m 0,5 0,1 0.544922,-1 L 12,13 Z"
       transform="translate(0,26)"
       id="path4177"
       inkscape:connector-curvature="0" />
  </g>
</svg>

<?xml version="1.0" encoding="UTF-8" standalone="no"?>
<!-- Created with Inkscape (http://www.inkscape.org/) -->

<svg
   xmlns:dc="http://purl.org/dc/elements/1.1/"
   xmlns:cc="http://creativecommons.org/ns#"
   xmlns:rdf="http://www.w3.org/1999/02/22-rdf-syntax-ns#"
   xmlns:svg="http://www.w3.org/2000/svg"
   xmlns="http://www.w3.org/2000/svg"
   xmlns:sodipodi="http://sodipodi.sourceforge.net/DTD/sodipodi-0.dtd"
   xmlns:inkscape="http://www.inkscape.org/namespaces/inkscape"
   width="22"
   height="22"
   id="svg4359"
   version="1.1"
   inkscape:version="0.91+devel r"
   sodipodi:docname="battery-080-charging.svg">
  <defs
     id="defs4361">
    <clipPath
       id="clipPath6">
      <rect
         id="rect8"
         color="#bebebe"
         fill="#bebebe"
         x="26.85"
         y="220.75"
         width="3.825"
         height="6.375" />
    </clipPath>
    <clipPath
       id="clipPath10">
      <rect
         id="rect12"
         color="#bebebe"
         fill="#bebebe"
         x="26.966"
         y="221.33"
         width="2.898"
         height="5.216" />
    </clipPath>
    <clipPath
       id="clipPath14">
      <rect
         id="rect16"
         color="#bebebe"
         fill="#bebebe"
         x="26.999"
         y="221.5"
         width="1.876"
         height="4.874" />
    </clipPath>
    <clipPath
       id="clipPath3025">
      <rect
         height="4.874"
         width="1.876"
         y="221.5"
         x="26.999"
         fill="#bebebe"
         color="#bebebe"
         id="rect3027" />
    </clipPath>
    <clipPath
       id="clipPath3021">
      <rect
         height="5.216"
         width="2.898"
         y="221.33"
         x="26.966"
         fill="#bebebe"
         color="#bebebe"
         id="rect3023" />
    </clipPath>
    <clipPath
       id="clipPath3017">
      <rect
         height="6.375"
         width="3.825"
         y="220.75"
         x="26.85"
         fill="#bebebe"
         color="#bebebe"
         id="rect3019" />
    </clipPath>
  </defs>
  <sodipodi:namedview
     id="base"
     pagecolor="#ffffff"
     bordercolor="#666666"
     borderopacity="1.0"
     inkscape:pageopacity="0.0"
     inkscape:pageshadow="2"
     inkscape:zoom="21.833333"
     inkscape:cx="12.371597"
     inkscape:cy="12.866966"
     inkscape:current-layer="layer1"
     showgrid="true"
     inkscape:grid-bbox="true"
     inkscape:document-units="px"
     inkscape:window-width="1366"
     inkscape:window-height="670"
     inkscape:window-x="-4"
     inkscape:window-y="29"
     inkscape:window-maximized="1"
     inkscape:showpageshadow="false"
     borderlayer="true"
     showguides="true"
     fit-margin-top="0"
     fit-margin-left="0"
     fit-margin-right="0"
     fit-margin-bottom="0">
    <inkscape:grid
       type="xygrid"
       id="grid4105"
       originx="1.110223e-16"
       originy="0"
       empspacing="2" />
    <sodipodi:guide
       position="-1,22"
       orientation="22,0"
       id="guide4111" />
    <sodipodi:guide
       position="23,-1"
       orientation="0,22"
       id="guide4113" />
    <sodipodi:guide
       position="23,-1"
       orientation="-22,0"
       id="guide4115" />
    <sodipodi:guide
       position="11,10"
       orientation="16,0"
       id="guide4130" />
    <sodipodi:guide
       position="12,11"
       orientation="0,16"
       id="guide4132" />
    <sodipodi:guide
       position="19,19"
       orientation="0,-16"
       id="guide4136" />
    <sodipodi:guide
       position="3,22"
       orientation="19.000011,0"
       id="guide4152" />
    <sodipodi:guide
       position="3,2.9999886"
       orientation="0,4"
       id="guide4154" />
    <sodipodi:guide
       position="15,3"
       orientation="0,4.0000019"
       id="guide4162" />
    <sodipodi:guide
       position="19.000002,3"
       orientation="-19,0"
       id="guide4164" />
    <sodipodi:guide
       position="-1,23"
       orientation="0,-4.0000019"
       id="guide4166" />
  </sodipodi:namedview>
  <metadata
     id="metadata4364">
    <rdf:RDF>
      <cc:Work
         rdf:about="">
        <dc:format>image/svg+xml</dc:format>
        <dc:type
           rdf:resource="http://purl.org/dc/dcmitype/StillImage" />
        <dc:title></dc:title>
      </cc:Work>
    </rdf:RDF>
  </metadata>
  <g
     id="layer1"
     inkscape:label="Layer 1"
     inkscape:groupmode="layer"
     transform="translate(0,-26)">
    <rect
       style="color:#000000;clip-rule:nonzero;display:inline;overflow:visible;visibility:visible;opacity:1;isolation:auto;mix-blend-mode:normal;color-interpolation:sRGB;color-interpolation-filters:linearRGB;solid-color:#000000;solid-opacity:1;fill:#f2f2f2;fill-opacity:1;fill-rule:nonzero;stroke:none;stroke-width:1;stroke-linecap:butt;stroke-linejoin:miter;stroke-miterlimit:4;stroke-dasharray:none;stroke-dashoffset:0;stroke-opacity:1;color-rendering:auto;image-rendering:auto;shape-rendering:auto;text-rendering:auto;enable-background:accumulate"
       id="rect4147-8"
       width="2"
       height="2"
       x="-3"
       y="25" />
    <path
       style="opacity:1;fill:#f2f2f2;fill-opacity:1;stroke:none;stroke-width:1;stroke-linecap:round;stroke-linejoin:miter;stroke-miterlimit:4;stroke-dasharray:none;stroke-opacity:1"
       d="m 3,6 0,3 -1,0 -1,0 0,4.1 1,0 1,0 0,2.9 18,0 0,-10 z m 2,2 14,0 0,6 -14,0 z"
       transform="translate(0,26)"
       id="rect4152"
       inkscape:connector-curvature="0"
       sodipodi:nodetypes="cccccccccccccccc" />
    <path
       style="opacity:1;fill:#f2f2f2;fill-opacity:1;stroke:none;stroke-width:1;stroke-linecap:round;stroke-linejoin:miter;stroke-miterlimit:4;stroke-dasharray:none;stroke-opacity:1"
       d="M 6 9 L 6 13 L 12 13 L 12 12 L 10 12 L 11.455078 9 L 6 9 z M 12 9 L 12 10 L 14 10 L 12.544922 13 L 15 13 L 15 9 L 12 9 z "
       id="rect4212"
       transform="translate(0,26)" />
    <path
       style="color:#000000;text-decoration:none;text-decoration-line:none;text-decoration-style:solid;text-decoration-color:#000000;clip-rule:nonzero;display:inline;overflow:visible;visibility:visible;opacity:1;isolation:auto;mix-blend-mode:normal;color-interpolation:sRGB;color-interpolation-filters:linearRGB;solid-color:#000000;solid-opacity:1;fill:#f2f2f2;fill-opacity:1;fill-rule:nonzero;stroke:none;stroke-width:1;stroke-linecap:butt;stroke-linejoin:miter;stroke-miterlimit:4;stroke-dasharray:none;stroke-dashoffset:0;stroke-opacity:1;color-rendering:auto;image-rendering:auto;shape-rendering:auto;text-rendering:auto;enable-background:accumulate"
       d="M 12 8 L 11.455078 9 L 12 9 L 12 8 z M 12 13 L 12 14 L 12.544922 13 L 12 13 z "
       transform="translate(0,26)"
       id="path4177" />
  </g>
</svg>
